packages/core/src/svgs/tokens/mono/ARBI.svg

<svg width="24" height="24" viewBox="0 0 24 24" fill="none" xmlns="http://www.w3.org/2000/svg">
<path d="M13.4889 13.5228L12.5167 16.173C12.487 16.248 12.487 16.3315 12.5167 16.4064L14.1834 20.9735L16.1225 19.8622L13.8001 13.5228C13.788 13.4914 13.7666 13.4643 13.7389 13.4453C13.711 13.4262 13.6782 13.416 13.6445 13.416C13.6108 13.416 13.5779 13.4262 13.5501 13.4453C13.5224 13.4643 13.501 13.4914 13.4889 13.5228ZM15.4335 9.05581C15.4215 9.02437 15.4001 8.99733 15.3724 8.97826C15.3445 8.95918 15.3117 8.94897 15.278 8.94897C15.2443 8.94897 15.2113 8.95918 15.1836 8.97826C15.1559 8.99733 15.1345 9.02437 15.1224 9.05581L14.1501 11.706C14.1204 11.781 14.1204 11.8645 14.1501 11.9394L16.8891 19.4178L18.8227 18.3065L15.4335 9.05026V9.05581Z" fill="white"/>
<path d="M11.9999 3.11676C12.05 3.11676 12.0944 3.12787 12.1389 3.15565L19.6395 7.51711C19.6815 7.54135 19.7163 7.57615 19.7407 7.61806C19.7651 7.65997 19.7781 7.70754 19.7783 7.75602V16.24C19.7781 16.2885 19.7651 16.336 19.7407 16.3779C19.7163 16.4199 19.6815 16.4547 19.6395 16.4789L12.1389 20.8571C12.0964 20.881 12.0485 20.8934 11.9999 20.8934C11.9513 20.8934 11.9035 20.881 11.8611 20.8571L4.36044 16.4845C4.31846 16.4602 4.28355 16.4255 4.25918 16.3835C4.23481 16.3416 4.22183 16.294 4.22155 16.2455V7.75602C4.22155 7.656 4.27711 7.56711 4.36044 7.51711L11.8611 3.15565C11.9024 3.12848 11.9504 3.11311 11.9999 3.11121V3.11676ZM11.9999 2C11.7388 2 11.4722 2.07224 11.2388 2.20558L3.87152 6.44481C3.64077 6.57737 3.44896 6.76832 3.31535 6.99848C3.18174 7.22863 3.11104 7.4899 3.11035 7.75602V16.24C3.11035 16.7789 3.39925 17.2845 3.87152 17.5567L11.2388 21.7959C11.4702 21.9296 11.7327 22 11.9999 22C12.2671 22 12.5296 21.9296 12.7612 21.7959L20.1283 17.5567C20.3607 17.4246 20.5537 17.233 20.6875 17.0016C20.8211 16.7702 20.891 16.5073 20.8896 16.24V7.75602C20.8896 7.21708 20.6006 6.71149 20.1283 6.44481L12.7612 2.20558C12.5278 2.07224 12.261 2 11.9999 2Z" fill="white"/>
<path d="M7.1272 19.4289L7.80503 17.5789L9.16625 18.7067L7.89393 19.8735L7.1272 19.4289Z" fill="white"/>
<path d="M11.383 7H9.51065C9.44155 7.00105 9.37455 7.02353 9.31881 7.06434C9.26308 7.10515 9.2214 7.16227 9.19953 7.22779L5.19922 18.3008L7.12714 19.4287L11.5386 7.23335C11.5775 7.12223 11.4997 7 11.3775 7H11.383ZM14.65 7H12.7831C12.7147 7.00065 12.6482 7.02233 12.5926 7.06207C12.5368 7.10183 12.4948 7.15775 12.472 7.22224L7.89387 19.8565L9.82736 20.9844L14.8055 7.22779C14.8155 7.20248 14.8191 7.17511 14.816 7.14806C14.813 7.12103 14.8035 7.09514 14.7882 7.07268C14.7727 7.05021 14.7521 7.03184 14.728 7.01916C14.704 7.0065 14.6772 6.99991 14.65 7Z" fill="white"/>
</svg>

<svg xmlns="http://www.w3.org/2000/svg" width="24" height="24" fill="none" viewBox="0 0 24 24">
    <path fill="#fff" d="m13.489 13.523-.972 2.65a.32.32 0 0 0 0 .233l1.666 4.568 1.94-1.112-2.323-6.34a.167.167 0 0 0-.311 0m1.944-4.467a.166.166 0 0 0-.31 0l-.973 2.65a.32.32 0 0 0 0 .233l2.74 7.479 1.933-1.111-3.39-9.257z"/>
    <path fill="#fff" d="M12 3.117c.05 0 .094.01.139.039l7.5 4.361a.28.28 0 0 1 .14.239v8.484a.28.28 0 0 1-.14.239l-7.5 4.378a.28.28 0 0 1-.278 0l-7.5-4.372a.28.28 0 0 1-.14-.24V7.756c0-.1.056-.189.14-.239l7.5-4.361A.27.27 0 0 1 12 3.11zM12 2a1.55 1.55 0 0 0-.761.206L3.872 6.445a1.52 1.52 0 0 0-.762 1.311v8.484c0 .539.29 1.045.762 1.317l7.367 4.239a1.52 1.52 0 0 0 1.522 0l7.367-4.24a1.5 1.5 0 0 0 .762-1.316V7.756c0-.539-.29-1.045-.762-1.311l-7.367-4.24A1.55 1.55 0 0 0 12 2"/>
    <path fill="#fff" d="m7.127 19.429.678-1.85 1.361 1.128-1.272 1.166z"/>
    <path fill="#fff" d="M11.383 7H9.511a.33.33 0 0 0-.311.228L5.2 18.3l1.927 1.128L11.54 7.233A.174.174 0 0 0 11.377 7zm3.267 0h-1.867a.33.33 0 0 0-.311.222L7.894 19.857l1.933 1.127 4.979-13.756a.166.166 0 0 0-.078-.209A.2.2 0 0 0 14.65 7"/>
</svg>
